X:1
T:Title
%%score ( 1 2 ) { 3 | 4 }
L:1/8
Q:1/4=97
M:4/4
K:Ab
V:1 treble nm="Grand Piano, Soprano"
V:2 treble 
V:3 bass nm="Choir Pad, The Needy Ones of Earth"
V:4 bass 
V:1
 [CE]>[CE] [CA]>[DB] [Ec]2 [Fd]>[Ec] | [=Dc]2 [DB]2 [DF]3 [DF] | [DG]>[DG] [DF]>[DE] [Fd]2 [Gd]2 | %3
w: By~Karl~K.~Lorenz * * * * * *|||
 [Ac]2 [Ac]2 [Acf]2 [Ace]2 | [ce]>[ce] [Ac]>[Ac] [Ge]>[Gd] [GB]2 | %5
w: ||
 [Ge]>[Ge] [GB]>[Fd] [Ec]>[DB] [CA]2 | [GB]>[GB] [Gc]>[GB] [=DF]>[DB] [Dc]>[DB] | %7
w: ||
 G2 [GB]>[Gc] [Gd]2 z2 | [CE]2 [CE]2 [CE]>[CE] [Ec]>[DB] | A2- [CA]->[CDA-] [CEA]2 [B,G]>[CA] | %10
w: |||
 [DB]2 [DB]2 [DB]>[DB] [Fd]>[Ec] | [DB]6 [Ac]>[Bd] | [ce]2 [ce]>[Bd] [Ac]2 [CA]>[EG] | %13
w: |||
 [DF]2 [EF]>[EF] [Fd]2 [Ec]>[DB] | [CA]2 [ce]>[Bd] c-[Ec] [DB]>[DB] | [CA]6 z2 |] %16
w: |||
V:2
 x8 | x8 | x8 | x8 | x8 | x8 | x8 | x8 | x8 | C2 A,2 z4 | x8 | x8 | x8 | x8 | z4 .A2 z2 | x8 |] %16
V:3
 A,2 F,2 A,2 E,2 | A,2 A,2 A,2 A,2 | E,,2 G,2 E,,2 B,2 | A,,2 C2 E,,2 C2 | A,,2 C2 B,,2 D2 | %5
 E,,2 D2 A,,2 A,2 | B,,2 E2 B,,2 B,2 | E,,2 D>C B,2 z2 | A,2 E,2 A,2 E,2 | A,2 E,2 A,2 E,2 | %10
 G,2 E,2 G,2 E,2 | G,2 E,>F, G,2 E,2 | A,,2 C2 A,,2 A,>A, | A,2 =A,>A, B,2 C,>D, | %14
 E,2 C2 E,,2 G,2 | A,2 E,2 A,,2 z2 |] %16
V:4
 A,,2 E,,2 A,,2 E,,2 | B,,2 B,,2 B,,2 B,,2 | z2 E,2 z2 E,2 | z2 [E,A,]2 z2 [E,A,]2 | %4
 z2 [E,A,]2 z2 [E,B,]2 | z2 [E,G,]2 z2 E,2 | z2 [G,B,]2 z2 [F,A,]2 | z2 E,>E, E,2 z2 | %8
 A,,2 E,,2 A,,2 E,,2 | A,,2 E,,2 A,,2 E,,2 | G,,2 E,,2 G,,2 E,,2 | G,,2 E,,>F,, G,,2 E,,2 | %12
 z2 [E,A,]2 z2 E,>C, | D,2 F,>F, [B,,F,]2 C,,>D,, | E,,2 [E,A,]2 z2 E,2 | A,,2 z2 z4 |] %16

